!!!OTL: ICH WILL ZU LAND AUSREITEN
!!!ARE: Europa, Mitteleuropa, Deutschland
!!!SCT: Z0060
!!!YEM: Copyright 1995, estate of Helmut Schaffrath.
**kern
*ICvox
*Ivox
*M4/4
*k[b-e-]
*g:
{4g
=1
4b-
4b-
4cc
4cc
=2
2dd
2dd
=3
4r}
{2dd
4dd
=4
4dd
4ee
4ffn
4dd
=5
2.dd}
{4dd
=6
4dd
4ee
4ffn
4dd
=7
2ee-
4dd}
{4dd
=8
4cc
4b-
4dd
4b-
=9
2.b-}
{4b-
=10
8b-
8b-
4cc
4cc
4cc
=11
2dd
4dd}
{4dd
=12
4cc
4b-
4b-
4b-
=13
2.fn}
{4dd
=14
4.dd
8cc
4b-
4dd
=15
4ee-
4dd
4dd
4b-
=16
2cc
4dd}
{4cc
=17
8b-
8b-
4g
4g
4e
=18
2.fn
4g}
==
!!!AGN: Sagen - Lied, Romanze, Ballade
!!!ONB: ESAC (Essen Associative Code) Database: ZUCCAL
!!!AMT: simple quadruple
!!!AIN: vox
!!!EED: Helmut Schaffrath
!!!EEV: 1.0
*-
